svgs/solid/up-down-left-right.svg

<svg xmlns="http://www.w3.org/2000/svg" viewBox="0 0 512 512"><!--! Font Awesome Free 7.2.0 by @fontawesome - https://fontawesome.com License - https://fontawesome.com/license/free (Icons: CC BY 4.0, Fonts: SIL OFL 1.1, Code: MIT License) Copyright 2026 Fonticons, Inc. --><path fill="currentColor" d="M278.6 9.4c-12.5-12.5-32.8-12.5-45.3 0l-64 64c-9.2 9.2-11.9 22.9-6.9 34.9S179.1 128 192 128l32 0 0 96-96 0 0-32c0-12.9-7.8-24.6-19.8-29.6s-25.7-2.2-34.9 6.9l-64 64c-12.5 12.5-12.5 32.8 0 45.3l64 64c9.2 9.2 22.9 11.9 34.9 6.9S128 332.9 128 320l0-32 96 0 0 96-32 0c-12.9 0-24.6 7.8-29.6 19.8s-2.2 25.7 6.9 34.9l64 64c12.5 12.5 32.8 12.5 45.3 0l64-64c9.2-9.2 11.9-22.9 6.9-34.9S332.9 384 320 384l-32 0 0-96 96 0 0 32c0 12.9 7.8 24.6 19.8 29.6s25.7 2.2 34.9-6.9l64-64c12.5-12.5 12.5-32.8 0-45.3l-64-64c-9.2-9.2-22.9-11.9-34.9-6.9S384 179.1 384 192l0 32-96 0 0-96 32 0c12.9 0 24.6-7.8 29.6-19.8s2.2-25.7-6.9-34.9l-64-64z"/></svg>

<svg xmlns="http://www.w3.org/2000/svg" viewBox="0 0 512 512"><!--! Font Awesome Free 6.5.2 by @fontawesome - https://fontawesome.com License - https://fontawesome.com/license/free (Icons: CC BY 4.0, Fonts: SIL OFL 1.1, Code: MIT License) Copyright 2024 Fonticons, Inc. --><path d="M278.6 9.4c-12.5-12.5-32.8-12.5-45.3 0l-64 64c-9.2 9.2-11.9 22.9-6.9 34.9s16.6 19.8 29.6 19.8h32v96H128V192c0-12.9-7.8-24.6-19.8-29.6s-25.7-2.2-34.9 6.9l-64 64c-12.5 12.5-12.5 32.8 0 45.3l64 64c9.2 9.2 22.9 11.9 34.9 6.9s19.8-16.6 19.8-29.6V288h96v96H192c-12.9 0-24.6 7.8-29.6 19.8s-2.2 25.7 6.9 34.9l64 64c12.5 12.5 32.8 12.5 45.3 0l64-64c9.2-9.2 11.9-22.9 6.9-34.9s-16.6-19.8-29.6-19.8H288V288h96v32c0 12.9 7.8 24.6 19.8 29.6s25.7 2.2 34.9-6.9l64-64c12.5-12.5 12.5-32.8 0-45.3l-64-64c-9.2-9.2-22.9-11.9-34.9-6.9s-19.8 16.6-19.8 29.6v32H288V128h32c12.9 0 24.6-7.8 29.6-19.8s2.2-25.7-6.9-34.9l-64-64z"/></svg>
